img/icon_telegram-black.svg

<svg width="45" height="45" viewBox="0 0 45 45" fill="none" xmlns="http://www.w3.org/2000/svg">
<path fill-rule="evenodd" clip-rule="evenodd" d="M0 22.5C0 34.9264 10.0736 45 22.5 45C34.9264 45 45 34.9264 45 22.5C45 10.0736 34.9264 0 22.5 0C10.0736 0 0 10.0736 0 22.5ZM18.3752 32.8125L18.758 27.0771L18.7577 27.0769L29.191 17.6616C29.6489 17.2552 29.0911 17.057 28.4832 17.4256L15.607 25.5491L10.0452 23.8131C8.84409 23.4454 8.83546 22.62 10.3149 22.0266L31.988 13.6696C32.9779 13.2202 33.9333 13.9073 33.5554 15.4224L29.8644 32.8154C29.6067 34.0514 28.8599 34.347 27.8252 33.7761L22.2027 29.6221L19.5002 32.25C19.4917 32.2583 19.4832 32.2666 19.4747 32.2748C19.1725 32.569 18.9224 32.8125 18.3752 32.8125Z" fill="#424242"/>
</svg>

<svg width="45" height="45" fill="none" xmlns="http://www.w3.org/2000/svg"><path fill-rule="evenodd" clip-rule="evenodd" d="M0 22.5C0 34.926 10.074 45 22.5 45S45 34.926 45 22.5 34.926 0 22.5 0 0 10.074 0 22.5zm18.375 10.313l.383-5.736 10.433-9.415c.458-.407-.1-.605-.708-.236l-12.876 8.123-5.562-1.736c-1.2-.368-1.21-1.193.27-1.786l21.673-8.357c.99-.45 1.945.237 1.567 1.752l-3.69 17.393c-.258 1.236-1.005 1.532-2.04.961l-5.622-4.154L19.5 32.25a5.883 5.883 0 01-.025.025c-.303.294-.553.538-1.1.538z" fill="#424242"/></svg>
